X:595
T: Wenn ich heim soll gehn (293), S. 608
N: T0483
O: Luxemburg
S: Singendes Volk, Esch-Alzette 1937 posth.]
N: Junglinster, hhh Johann Wrth, 25.12.1932
R: ???]
M: 2/4
L: 1/8
K: G
D2 | GGGG | G2FE | A2DD | D2
D2 | A2A2 | A2GA | B2GG | G2
BB | B2GG | G2
B2 | GGGG | F2EF | G2

@@@ Tune index: 8649
